X:863
T:Reel 863
M:4/4
K:Amaj
L:1/8
A,F,|E,F,A,B, CA,B,C|DB,CA, B,A,F,A,|E,F,A,B, CB,CD|ECB,C A,2:| (3EFG |AGAF E2EC|B,DCA, B,DCB,|A,F, (3F,E,F, A,2C2|EACB, A,2 (3E,F,E, |A,2A,F, A,2A,C|B,A,CA, B,A,F,A,|E,F,A,B, CB,CD|ECB,C A,2|
